**kern	**text	**text
*staff1	*staff1	*staff1
=1-	=1-	=1-
*clefG2	*	*
*k[b-]	*	*
*M3/4	*	*
4d/	Wo	.
4f/	kommst	.
4d/	du	.
=2	=2	=2
2a;/	her?	.
4dd\	WeiB	.
=3	=3	=3
4cc\	nicht!	.
8r	.	.
8cc\	Wo	.
8dd\	Woi-	.
8a/	ken	.
=4	=4	=4
!!linebreak:original
(4cc\	geh'n,	.
8b-\)	.	.
8b-\	aus	.
8b-\	Son-nen-	.
8a/	-hah'n,-	.
=5	=5	=5
(4a/	.	.
8g/)	.	.
4r	.	.
8g/	wo	.
=6	=6	=6
8dd\	nah'	.
8cc\	dic	.
8cc\L	Ster-	.
8b-\J	.	.
8a/L	ne	.
8g#/J	.	.
=7	=7	=7
(4g#/	steh'n:	.
4a/)	.	.
4r	.	.
=8	=8	=8
!!linebreak:original
4b-\	Weit!	.
4r	.	.
4r	.	.
=9	=9	=9
4dd\	Weit!	.
8r	.	.
8dd\	sagt's	So
8cc\	.	.
8b-\	das	.
=10	=10	=10
4a/	Weh'n	.
4r	.	.
8r	.	.
8a/	des	.
=11	=11	=11
4.cc\	Geis-	.
8cc\	tes,	.
8b-\	dermich	.
8a/	.	.
=12	=12	=12
!!linebreak:original
4b-\	ricf,	.
8r	.	.
8b-\	als	.
8a/	un-	.
8g#/	ten	.
=13	=13	=13
4a/	tief	.
4r	.	.
4a/	ich	.
=14	=14	=14
4d/	schiief.	.
4r	.	.
4r	.	.
=15	=15	=15
2.r	.	.
=16||	=16||	=16||
!!linebreak:original
4d/	Weilst	.
4f/	du	.
4d/	dann	.
=17	=17	=17
2a;/	Iner?	.
4dd\	WeiB	.
=18	=18	=18
4cc\	nicht!	.
8r	.	.
8cc\	Doch	.
8dd\	ist	.
8a/	dies	.
=19	=19	=19
(4cc\	Land,	.
8b-\)	.	.
8b-\	wo	.
8b-\	ich	.
8a/	mich	.
=20	=20	=20
!!linebreak:original
(4a'/	fand	.
4g/)	.	.
8r	.	.
8g/	viel-	.
=21	=21	=21
8g\L	mehr	.
8dd\	.	.
8cc\J	.	.
8b-\	mir	.
8a/	un-	.
8g/	be-	.
=22	=22	=22
(4f/	kannt,	.
4e/)	.	.
8r	.	.
8e/	als	.
=23	=23	=23
!!linebreak:original
8f/L	je-	.
8cc/J	.	.
8b-\	nes	.
8a-/L	das	.
8g/J	.	.
8f#/	mir	.
=24	=24	=24
(4f#/	schwand-	.
4g/)	.	.
4r	.	.
=25	=25	=25
4ee-\	Fern	.
8ee-\	hiir	.
8ee-\	ich	.
8dd\	sti-	.
8cc#\	.	.
=26	=26	=26
!!linebreak:original
4dd\	.	.
8r	.	.
8dd\	der	.
8b-\	ir-	.
8a/	re	.
=27	=27	=27
4g/	FuB,	.
4r	.	.
4a/	fort	.
=28	=28	=28
4d/	muss.	.
4r	.	.
4r	.	.
=29	=29	=29
2.r	.	.
=30||	=30||	=30||
!!linebreak:original
4f/	Wo	.
4f/	willst	.
4d/	du	.
=31	=31	=31
4a/	hin?	.
4r	.	.
4dd\	WeiB	.
=32	=32	=32
4cc\	nicht,	.
8r	.	.
8cc\	o	.
8dd\	fra-	.
8a/	ge	.
=33	=33	=33
(4cc\	nicht!	.
8b-;\)	.	.
8b-\	WeiB	.
8a/	Son-	.
8g/	-nen-	.
=34	=34	=34
!!linebreak:original
(4g/	licht	.
4f#/)	.	.
4r	.	.
=35	=35	=35
8r	.	.
8g/	denn,	.
8f#/	wo	.
8g/	es	.
8b-\	zfm-	.
8g/	dend	.
=36	=36	=36
(4fn/	bricht,	.
4e/)	.	.
8r	.	.
8e/	aus	.
=37	=37	=37
!!linebreak:original
8f/L	Him-	.
8cc/	.	.
8b-/J	.	.
8a-/	mels	.
8g/	An-	.
8f#/	ge-	.
=38	=38	=38
(4cc\	sicht?	.
8bn\)	.	.
8g/	Es	.
b-q/	winkt	.
8a-/	.	.
8g/	der	.
=39	=39	=39
2ee-\	Geist	.
8dd\L	uns	.
8cc#\J	.	.
=40	=40	=40
!!linebreak:original
4dd\	zu,	.
8r	.	.
8dd\	wo	.
8b-\	ich	.
8a/	und	.
=41	=41	=41
4g#/	du,	.
4r	.	.
4r	.	.
=42	=42	=42
4r	.	.
2a/	find'	.
=43	=43	=43
4d/	Ruh.	.
4r	.	.
4r	.	.
=44	=44	=44
2.r	.	.
==	==	==
*-	*-	*-
